svg/business/sale_line.svg

<?xml version="1.0" encoding="UTF-8"?>
<svg width="24px" height="24px" viewBox="0 0 24 24" version="1.1" xmlns="http://www.w3.org/2000/svg" xmlns:xlink="http://www.w3.org/1999/xlink">
    <title>sale_line</title>
    <g id="页面-1" stroke="none" stroke-width="1" fill="none" fill-rule="evenodd">
        <g id="Business" transform="translate(-912.000000, -192.000000)">
            <g id="sale_line" transform="translate(912.000000, 192.000000)">
                <path d="M24,0 L24,24 L0,24 L0,0 L24,0 Z M12.5934901,23.257841 L12.5819402,23.2595131 L12.5108777,23.2950439 L12.4918791,23.2987469 L12.4918791,23.2987469 L12.4767152,23.2950439 L12.4056548,23.2595131 C12.3958229,23.2563662 12.3870493,23.2590235 12.3821421,23.2649074 L12.3780323,23.275831 L12.360941,23.7031097 L12.3658947,23.7234994 L12.3769048,23.7357139 L12.4804777,23.8096931 L12.4953491,23.8136134 L12.4953491,23.8136134 L12.5071152,23.8096931 L12.6106902,23.7357139 L12.6232938,23.7196733 L12.6232938,23.7196733 L12.6266527,23.7031097 L12.609561,23.275831 C12.6075724,23.2657013 12.6010112,23.2592993 12.5934901,23.257841 L12.5934901,23.257841 Z M12.8583906,23.1452862 L12.8445485,23.1473072 L12.6598443,23.2396597 L12.6498822,23.2499052 L12.6498822,23.2499052 L12.6471943,23.2611114 L12.6650943,23.6906389 L12.6699349,23.7034178 L12.6699349,23.7034178 L12.678386,23.7104931 L12.8793402,23.8032389 C12.8914285,23.8068999 12.9022333,23.8029875 12.9078286,23.7952264 L12.9118235,23.7811639 L12.8776777,23.1665331 C12.8752882,23.1545897 12.8674102,23.1470016 12.8583906,23.1452862 L12.8583906,23.1452862 Z M12.1430473,23.1473072 C12.1332178,23.1423925 12.1221763,23.1452606 12.1156365,23.1525954 L12.1099173,23.1665331 L12.0757714,23.7811639 C12.0751323,23.7926639 12.0828099,23.8018602 12.0926481,23.8045676 L12.108256,23.8032389 L12.3092106,23.7104931 L12.3186497,23.7024347 L12.3186497,23.7024347 L12.3225043,23.6906389 L12.340401,23.2611114 L12.337245,23.2485176 L12.337245,23.2485176 L12.3277531,23.2396597 L12.1430473,23.1473072 Z" id="MingCute" fill-rule="nonzero"></path>
                <path d="M14.5943,2.89707 C13.0993,1.62301 10.9004,1.62301 9.40535,2.89707 L9.02888,3.21789 C8.70856,3.49087 8.31028,3.65585 7.89074,3.68933 L7.39768,3.72867 C5.43965,3.88492 3.8848,5.43977 3.72855,7.39781 L3.6892,7.89087 C3.65572,8.3104 3.49075,8.70868 3.21777,9.029 L2.89695,9.40547 C1.62289,10.9005 1.62289,13.0994 2.89695,14.5944 L3.21777,14.9709 C3.49075,15.2912 3.65572,15.6895 3.6892,16.109 L3.72855,16.6021 C3.8848,18.5601 5.43965,20.115 7.39768,20.2712 L7.89074,20.3106 C8.31028,20.344 8.70856,20.509 9.02888,20.782 L9.40535,21.1028 C10.9004,22.3769 13.0993,22.3769 14.5943,21.1028 L14.9708,20.782 C15.2911,20.509 15.6894,20.344 16.1089,20.3106 L16.602,20.2712 C18.56,20.115 20.1148,18.5601 20.2711,16.6021 L20.3104,16.109 C20.3439,15.6895 20.5089,15.2912 20.7819,14.9709 L21.1027,14.5944 C22.3767,13.0994 22.3767,10.9005 21.1027,9.40547 L20.7819,9.029 C20.5089,8.70868 20.3439,8.3104 20.3104,7.89087 L20.2711,7.39781 C20.1148,5.43977 18.56,3.88492 16.602,3.72867 L16.1089,3.68933 C15.6894,3.65585 15.2911,3.49087 14.9708,3.21789 L14.5943,2.89707 Z M10.7026,4.4193 C11.4501,3.78227 12.5495,3.78227 13.2971,4.4193 L13.6735,4.74012 C14.3142,5.28608 15.1107,5.61603 15.9498,5.68299 L16.4429,5.72233 C17.4219,5.80046 18.1993,6.57788 18.2774,7.5569 L18.3168,8.04996 C18.3837,8.88903 18.7137,9.68558 19.2596,10.3262 L19.5805,10.7027 C20.2175,11.4502 20.2175,12.5497 19.5805,13.2972 L19.2596,13.6736 C18.7137,14.3143 18.3837,15.1109 18.3168,15.9499 L18.2774,16.443 C18.1993,17.422 17.4219,18.1994 16.4429,18.2775 L15.9498,18.3169 C15.1107,18.3839 14.3142,18.7138 13.6735,19.2598 L13.2971,19.5806 C12.5495,20.2176 11.4501,20.2176 10.7026,19.5806 L10.3261,19.2598 C9.68546,18.7138 8.8889,18.3839 8.04984,18.3169 L7.55678,18.2775 C6.57776,18.1994 5.80034,17.422 5.72221,16.443 L5.68287,15.9499 C5.61591,15.1109 5.28596,14.3143 4.74,13.6736 L4.41918,13.2972 C3.78215,12.5497 3.78215,11.4502 4.41918,10.7027 L4.74,10.3262 C5.28596,9.68558 5.61591,8.88903 5.68287,8.04996 L5.72221,7.5569 C5.80034,6.57788 6.57776,5.80046 7.55678,5.72233 L8.04984,5.68299 C8.8889,5.61603 9.68546,5.28608 10.3261,4.74012 L10.7026,4.4193 Z M15.7069,9.70705 C16.0975,9.31652 16.0975,8.68336 15.7069,8.29283 C15.3164,7.90231 14.6832,7.90231 14.2927,8.29283 L8.29271,14.2928 C7.90219,14.6834 7.90219,15.3165 8.29271,15.707 C8.68324,16.0976 9.3164,16.0976 9.70693,15.707 L15.7069,9.70705 Z M10.9998,9.49994 C10.9998,10.3284 10.3282,10.9999 9.49982,10.9999 C8.67139,10.9999 7.99982,10.3284 7.99982,9.49994 C7.99982,8.67151 8.67139,7.99994 9.49982,7.99994 C10.3282,7.99994 10.9998,8.67151 10.9998,9.49994 Z M14.4998,15.9999 C15.3282,15.9999 15.9998,15.3284 15.9998,14.4999 C15.9998,13.6715 15.3282,12.9999 14.4998,12.9999 C13.6714,12.9999 12.9998,13.6715 12.9998,14.4999 C12.9998,15.3284 13.6714,15.9999 14.4998,15.9999 Z" id="形状" fill="#09244B"></path>
            </g>
        </g>
    </g>
</svg>

<svg xmlns="http://www.w3.org/2000/svg" width="24" height="24"><g fill="none" fill-rule="evenodd"><path d="M24 0v24H0V0zM12.593 23.258l-.011.002-.071.035-.02.004-.014-.004-.071-.035c-.01-.004-.019-.001-.024.005l-.004.01-.017.428.005.02.01.013.104.074.015.004.012-.004.104-.074.012-.016.004-.017-.017-.427c-.002-.01-.009-.017-.017-.018m.265-.113-.013.002-.185.093-.01.01-.003.011.018.43.005.012.008.007.201.093c.012.004.023 0 .029-.008l.004-.014-.034-.614c-.003-.012-.01-.02-.02-.022m-.715.002a.023.023 0 0 0-.027.006l-.006.014-.034.614c0 .012.007.02.017.024l.015-.002.201-.093.01-.008.004-.011.017-.43-.003-.012-.01-.01z"/><path fill="#09244B" d="M14.594 2.897a4 4 0 0 0-5.189 0l-.376.32a2 2 0 0 1-1.138.472l-.493.04a4 4 0 0 0-3.67 3.669l-.039.493a2 2 0 0 1-.471 1.138l-.321.376a4 4 0 0 0 0 5.19l.32.376a2 2 0 0 1 .472 1.138l.04.493a4 4 0 0 0 3.669 3.67l.493.039a2 2 0 0 1 1.138.471l.376.32a4 4 0 0 0 5.19 0l.376-.32a2 2 0 0 1 1.138-.471l.493-.04a4 4 0 0 0 3.67-3.669l.038-.493a2 2 0 0 1 .472-1.138l.32-.377a4 4 0 0 0 0-5.189l-.32-.376a2 2 0 0 1-.472-1.138l-.039-.493a4 4 0 0 0-3.669-3.67l-.493-.039a2 2 0 0 1-1.138-.471zM10.703 4.42a2 2 0 0 1 2.594 0l.377.321a4 4 0 0 0 2.276.943l.493.04a2 2 0 0 1 1.834 1.834l.04.493a4 4 0 0 0 .943 2.276l.32.377a2 2 0 0 1 0 2.594l-.32.377a4 4 0 0 0-.943 2.276l-.04.493a2 2 0 0 1-1.834 1.834l-.493.04a4 4 0 0 0-2.276.943l-.377.32a2 2 0 0 1-2.594 0l-.377-.32a4 4 0 0 0-2.276-.943l-.493-.04a2 2 0 0 1-1.835-1.834l-.04-.493a4 4 0 0 0-.942-2.276l-.32-.377a2 2 0 0 1 0-2.594l.32-.377a4 4 0 0 0 .943-2.276l.04-.493a2 2 0 0 1 1.834-1.835l.493-.039a4 4 0 0 0 2.276-.943zm5.004 5.288a1 1 0 1 0-1.414-1.414l-6 6a1 1 0 1 0 1.414 1.414zM11 9.5a1.5 1.5 0 1 1-3 0 1.5 1.5 0 0 1 3 0m3.5 6.5a1.5 1.5 0 1 0 0-3 1.5 1.5 0 0 0 0 3"/></g></svg>
